packages/sources/icons/src/vitamix/ie-fill.svg

<svg width="16" height="16" viewBox="0 0 16 16" fill="none" xmlns="http://www.w3.org/2000/svg">
<path fill-rule="evenodd" clip-rule="evenodd" d="M1.46002 13.74C2.33268 14.6127 3.91202 14.4067 5.74135 13.4133C7.2712 14.1458 9.03956 14.1968 10.6091 13.5537C12.1786 12.9106 13.4027 11.6334 13.9787 10.038H10.792C10.3754 10.8287 9.41735 11.3693 8.41735 11.3693C7.00068 11.3693 5.83402 10.2047 5.79269 8.87334V8.74867H13.6567C13.6882 8.74855 13.7198 8.74789 13.7514 8.74667H14.2874C14.318 8.50201 14.3334 8.25334 14.3334 8.00001C14.3348 7.02951 14.0998 6.07326 13.6487 5.21401L13.6552 5.19831C13.6588 5.18928 13.6625 5.18018 13.6667 5.17134C14.2914 3.67334 14.3334 2.42534 13.5834 1.67667C12.7714 0.866006 10.852 1.08201 8.78868 2.01667C5.81633 1.7909 3.1286 3.78058 2.47668 6.68934C2.72602 6.39267 3.86802 5.06934 5.16802 4.33934C5.20166 4.33934 5.42868 4.20114 5.51206 4.14968C5.37669 4.2552 4.86305 4.76831 4.75135 4.88001C3.80509 5.86144 2.99272 6.96365 2.33535 8.15801C1.04135 10.506 0.564018 12.8467 1.46002 13.74ZM2.68876 10.038C3.17172 11.3707 4.10944 12.4902 5.33676 13.1993L5.33476 13.2007C4.00143 13.9073 2.9181 14.0327 2.3761 13.4913C1.71543 12.8313 1.91476 11.5593 2.68876 10.038ZM13.448 4.86134L13.458 4.83868C13.958 3.75734 14 2.84268 13.5413 2.30134C12.962 1.72268 11.848 1.80134 10.5267 2.41334C11.7398 2.89149 12.765 3.75055 13.448 4.86134ZM11.042 7.12734V7.168V7.16867H5.83469V7.12734C5.91802 5.83734 7.12535 4.714 8.54202 4.714C9.87535 4.714 10.9587 5.754 11.042 7.12734Z" fill="#001018"/>
</svg>

<svg width="16" height="16" fill="none" xmlns="http://www.w3.org/2000/svg"><path fill-rule="evenodd" clip-rule="evenodd" d="M1.46 13.74c.873.873 2.452.667 4.281-.327a6.002 6.002 0 0 0 8.238-3.375h-3.187c-.417.79-1.375 1.331-2.375 1.331-1.416 0-2.583-1.164-2.624-2.496V8.75h7.864l.094-.002h.536a5.975 5.975 0 0 0-.639-3.533l.007-.016a.458.458 0 0 1 .012-.027c.624-1.498.666-2.746-.084-3.494-.812-.811-2.731-.595-4.794.34A6.003 6.003 0 0 0 2.477 6.69c.249-.296 1.391-1.62 2.691-2.35.034 0 .26-.138.344-.19-.135.106-.649.62-.76.731a15.47 15.47 0 0 0-2.417 3.278C1.041 10.506.564 12.847 1.46 13.74zm1.229-3.702a6.02 6.02 0 0 0 2.648 3.161l-.002.002c-1.334.706-2.417.832-2.959.29-.66-.66-.461-1.932.313-3.453zm10.759-5.177.01-.022c.5-1.082.542-1.996.083-2.538-.579-.578-1.693-.5-3.014.112a6.021 6.021 0 0 1 2.921 2.448zm-2.406 2.266v.041H5.835v-.04c.083-1.29 1.29-2.414 2.707-2.414 1.333 0 2.417 1.04 2.5 2.413z" fill="#001018"/></svg>
